icons/register_book_fill.svg

<svg width="48" height="48" viewBox="0 0 48 48" fill="none" xmlns="http://www.w3.org/2000/svg">
<path d="M36.9896 29.0025C33.3205 28.9646 31.2731 29.3354 27.378 30.9258L26.622 29.0742C30.7491 27.389 33.0599 26.9618 37.0103 27.0027L36.9896 29.0025Z" fill="black"/>
<path d="M27.378 26.9258C31.2731 25.3354 33.3205 24.9646 36.9896 25.0025L37.0103 23.0027C33.0599 22.9618 30.7491 23.389 26.622 25.0742L27.378 26.9258Z" fill="black"/>
<path d="M36.9896 21.0025C33.3205 20.9646 31.2731 21.3354 27.378 22.9258L26.622 21.0742C30.7491 19.389 33.0599 18.9618 37.0103 19.0027L36.9896 21.0025Z" fill="black"/>
<path d="M34.5 16V13H36.5V16H34.5Z" fill="black"/>
<path d="M31 14V17H33V14H31Z" fill="black"/>
<path d="M27.5 18V15H29.5V18H27.5Z" fill="black"/>
<path d="M11.0104 29.0025C14.6795 28.9646 16.7269 29.3354 20.622 30.9258L21.378 29.0742C17.2509 27.389 14.9401 26.9618 10.9896 27.0027L11.0104 29.0025Z" fill="black"/>
<path d="M20.622 26.9258C16.7269 25.3354 14.6795 24.9646 11.0104 25.0025L10.9896 23.0027C14.9401 22.9618 17.2509 23.389 21.378 25.0742L20.622 26.9258Z" fill="black"/>
<path d="M11.0104 21.0025C14.6795 20.9646 16.7269 21.3354 20.622 22.9258L21.378 21.0742C17.2509 19.389 14.9401 18.9618 10.9896 19.0027L11.0104 21.0025Z" fill="black"/>
<path d="M13.5 16V13H11.5V16H13.5Z" fill="black"/>
<path d="M17 14V17H15V14H17Z" fill="black"/>
<path d="M20.5 18V15H18.5V18H20.5Z" fill="black"/>
<path fill-rule="evenodd" clip-rule="evenodd" d="M42 10.9838C42.4057 11.073 42.8198 11.1686 43.2434 11.2707C43.6888 11.378 44 11.7783 44 12.2365V37.7749C44 38.4077 43.4173 38.8804 42.7957 38.7618C36.5832 37.5766 32.3951 37.4936 26.6742 38.3611C26.1781 39.3339 25.1669 40 24 40C22.8331 40 21.8219 39.3339 21.3258 38.3611C15.6049 37.4936 11.4168 37.5766 5.20425 38.7618C4.58268 38.8804 4 38.4077 4 37.7749V12.2365C4 11.7783 4.31119 11.378 4.75659 11.2707C5.18022 11.1686 5.59433 11.073 6 10.9838V10.524C6 9.63895 6.589 8.83011 7.48401 8.60493C13.6344 7.0576 18.1123 8.69563 23.2406 11.0814C23.4904 11.1326 23.7435 11.1855 24 11.2401C24.2565 11.1855 24.5096 11.1326 24.7594 11.0814C29.8877 8.69563 34.3656 7.0576 40.516 8.60493C41.411 8.83011 42 9.63895 42 10.524V10.9838ZM40 33.9681L40 33.967V10.5375C34.3416 9.12233 30.3169 10.6723 25 13.1762V36.4187L25.0028 36.4209C25.0034 36.4213 25.0041 36.4217 25.0047 36.4221C25.009 36.4244 25.0125 36.4251 25.0139 36.4252L25.015 36.4252L25.0173 36.4246C25.0186 36.4242 25.0204 36.4236 25.0227 36.4225C29.9319 34.2006 34.2143 32.9404 39.9457 33.9865C39.9564 33.9884 39.9645 33.9877 39.9714 33.9859C39.9795 33.9838 39.9871 33.9798 39.9932 33.9749C39.997 33.9719 39.999 33.9694 40 33.9681ZM22.9972 36.4209L23 36.4189V13.1772C17.6831 10.6732 13.6584 9.12233 8 10.5375V33.967L8.00001 33.9681C8.00095 33.9694 8.003 33.9719 8.00678 33.9749C8.01286 33.9798 8.02054 33.9838 8.02856 33.9859C8.03554 33.9877 8.04358 33.9884 8.05429 33.9865C13.7857 32.9404 18.0681 34.2006 22.9773 36.4225C22.9823 36.4248 22.9847 36.4252 22.985 36.4252L22.9861 36.4252C22.9877 36.4251 22.9921 36.4242 22.9972 36.4209Z" fill="black"/>
</svg>

<svg
  xmlns="http://www.w3.org/2000/svg"
  width="24"
  height="24"
  viewBox="0 0 24 24"
  fill="none"
  stroke="currentColor"
  stroke-width="2"
  stroke-linecap="round"
  stroke-linejoin="round"
>
  <path d="M36.99 29.003c-3.67-.038-5.717.332-9.612 1.923l-.756-1.852c4.127-1.685 6.438-2.112 10.388-2.071z" />
  <path d="M27.378 26.926c3.895-1.59 5.943-1.961 9.612-1.923l.02-2c-3.95-.041-6.26.386-10.388 2.071z" />
  <path d="M36.99 21.003c-3.67-.038-5.717.332-9.612 1.923l-.756-1.852c4.127-1.685 6.438-2.112 10.388-2.071z" />
  <path d="M34.5 16v-3h2v3z" />
  <path d="M31 14v3h2v-3z" />
  <path d="M27.5 18v-3h2v3z" />
  <path d="M11.01 29.003c3.67-.038 5.717.332 9.612 1.923l.756-1.852c-4.127-1.685-6.438-2.112-10.388-2.071z" />
  <path d="M20.622 26.926c-3.895-1.59-5.942-1.961-9.612-1.923l-.02-2c3.95-.041 6.26.386 10.388 2.071z" />
  <path d="M11.01 21.003c3.67-.038 5.717.332 9.612 1.923l.756-1.852c-4.127-1.685-6.438-2.112-10.388-2.071z" />
  <path d="M13.5 16v-3h-2v3z" />
  <path d="M17 14v3h-2v-3z" />
  <path d="M20.5 18v-3h-2v3z" />
  <path
    fill-rule="evenodd"
    d="M42 10.984q.609.134 1.243.287a.99.99 0 0 1 .757.965v25.539c0 .633-.583 1.105-1.204.987-6.213-1.185-10.4-1.268-16.122-.4a3 3 0 0 1-5.348 0c-5.721-.868-9.91-.785-16.122.4A1.01 1.01 0 0 1 4 37.775V12.237c0-.459.311-.859.757-.966q.634-.153 1.243-.287v-.46c0-.885.589-1.694 1.484-1.92 6.15-1.546 10.628.092 15.757 2.477q.375.077.759.16.384-.083.76-.16c5.128-2.385 9.606-4.023 15.756-2.476A1.97 1.97 0 0 1 42 10.524zm-2 22.984V10.537c-5.658-1.415-9.683.135-15 2.64v23.242l.003.002.002.001.009.003h.003l.006-.002c4.909-2.222 9.191-3.483 14.923-2.437a.06.06 0 0 0 .047-.011zm-17.003 2.453.003-.002V13.177c-5.317-2.504-9.342-4.055-15-2.64v23.431l.007.007a.058.058 0 0 0 .048.012c5.73-1.047 10.013.214 14.922 2.435l.008.003h.001z"
    clip-rule="evenodd"
  />
</svg>
